packages/katcn/src/icons/svg/wallet-solid.svg

<svg xmlns="http://www.w3.org/2000/svg" fill="none" viewBox="0 0 24 24"><path fill="#000" d="M17.4 16.2c-2.3 0-4.2-1.9-4.2-4.2s1.9-4.2 4.2-4.2h2.9c-.2-2.1-2-3.8-4.2-3.8h-10C3.9 4 2 5.8 2 8.1v7.8C2 18.2 3.9 20 6.2 20h10c2.2 0 4-1.7 4.2-3.8z"/><path fill="#000" d="M20.6 9.8h-3.2c-1.2 0-2.2 1-2.2 2.2s1 2.2 2.2 2.2h3.2c.8 0 1.4-.6 1.4-1.4v-1.6c0-.8-.6-1.4-1.4-1.4"/></svg>

<svg width="24" height="24" viewBox="0 0 24 24" fill="none" xmlns="http://www.w3.org/2000/svg">
<path d="M17.4 16.2C15.1 16.2 13.2 14.3 13.2 12C13.2 9.7 15.1 7.8 17.4 7.8H20.3C20.1 5.7 18.3 4 16.1 4H6.1C3.9 4 2 5.8 2 8.1V15.9C2 18.2 3.9 20 6.2 20H16.2C18.4 20 20.2 18.3 20.4 16.2H17.4Z" fill="black"/>
<path d="M20.6 9.8H17.4C16.2 9.8 15.2 10.8 15.2 12C15.2 13.2 16.2 14.2 17.4 14.2H20.6C21.4 14.2 22 13.6 22 12.8V11.2C22 10.4 21.4 9.8 20.6 9.8Z" fill="black"/>
</svg>
